X:1
T:Llodrau Tynn
L:1/8
M:9/8
I:linebreak $
K:D
V:1 treble 
V:1
|: ABA A2 G F2 G | ABA A2 B cBA | ABA A2 G F2 G | A2 d d2 c d3 :| A2 g f2 d e2 c |$ %5
 ABA A2 B c2 A |1 A2 g f2 d c2 A | A2 d d2 c d3 :|2 d2 A A2 G F2 G | A2 d d2 c d3 |] %10
